X:1
T:Title
%%score { ( 1 3 ) | ( 2 4 ) }
L:1/8
Q:1/4=60
M:2/4
K:C
V:1 treble nm="Grand Piano"
V:3 treble 
V:2 bass 
V:4 bass 
V:1
 [Fc]2 [Fd][FA] | [Gc]3 [FA] | [EG][Af] [Ge][Fd] |[M:3/8] [Cc]2- [CFc] |[M:1/8] [CG_B] | %5
w: Hermann~von~M�ller * *|||||
[M:2/4] [CFA][_B,F_B] [Fc][Fd] | E2 F2 | A-[DA] .[CEG]2 | [F,A,F]4 |] %9
w: ||||
V:2
 [F,A,]2 [D,A,][D,D] | [E,C]3 [F,C] | [G,C][G,C] [G,C][G,B,] |[M:3/8] C,2 D, |[M:1/8] E, | %5
[M:2/4] F,D, [C,A,][B,,^G,] | .[C,G,C]2 [D,A,][^C,B,] | z B, z _B, | F,,4 |] %9
V:3
 x4 | x4 | x4 |[M:3/8] E2 z |[M:1/8] x |[M:2/4] x4 | z _B, z G | .[CF]2 z2 | x4 |] %9
V:4
 x4 | x4 | x4 |[M:3/8] x3 |[M:1/8] x |[M:2/4] x4 | x4 | C,2 C,2 | x4 |] %9

